images/svg-mountain.svg

<svg id="svg-mountain" width="1279" height="572" viewBox="0 0 1279 572" fill="none" xmlns="http://www.w3.org/2000/svg">
<path d="M0.860375 571.185C0.640489 569.781 -0.0879127 568.294 0.324282 566.997C0.894929 565.194 2.27918 563.523 3.38021 561.812C11.1545 549.673 18.9174 537.534 26.7354 525.413C32.7272 516.137 39.3218 507.015 44.7109 497.583C53.0032 483.074 62.5458 468.975 73.2598 455.182C84.0428 441.303 93.8969 427.116 101.838 412.381C106.731 403.301 110.943 394.043 126.529 376.717C129.739 371.15 134.087 365.879 138.111 360.529C144.383 352.194 150.403 343.763 157.237 335.63C168.693 321.984 180.548 308.468 192.61 295.042C195.906 291.372 200.274 288.066 204.618 284.851C208.553 281.938 213.931 281.666 218.998 284.215C223.122 286.289 226.759 288.831 230.247 291.36C244.799 301.92 255.677 313.923 266.098 326.072C279.219 341.386 292.317 356.705 305.054 372.136C314.366 383.414 323.232 394.831 331.981 406.267C344.465 422.577 356.648 438.975 369 455.323C380.673 470.774 392.095 486.288 404.2 501.611C410.95 510.162 418.813 518.402 426.282 526.743C433.117 534.378 440.505 541.846 446.848 549.624C450.794 554.467 453.265 559.746 456.575 565.13C458.008 564.055 459.548 563.047 460.837 561.929C472.477 551.813 584.831 392.083 593.68 380.814C603.857 367.867 613.857 354.855 624.55 342.1C632.126 333.059 640.607 324.339 648.877 315.548C660.794 302.882 672.413 290.109 682.293 276.689C688.888 267.74 696.102 258.999 702.674 250.049C708.91 241.551 714.469 232.848 720.66 224.34C725.965 217.049 732.291 210.068 737.207 202.663C744.035 192.372 750.053 181.842 756.235 171.371C764.269 157.777 772.059 144.111 782.594 131.247C788.65 123.859 795.318 116.641 800.43 108.973C808.688 96.5819 815.645 83.8071 823.626 71.3265C829.182 62.645 835.074 54.0372 841.606 45.6601C852.425 31.7692 864.611 18.3694 877.827 5.38715C878.912 4.32369 880 3.23886 880.754 2.06613C881.914 0.252067 884.14 -0.26853 886.676 0.638138C890.886 2.14313 895.292 3.65847 898.77 5.7322C908.799 11.7076 916.684 18.8167 923.379 26.2875C930.164 33.8602 938.925 40.356 947.987 46.8429C962.609 57.3079 976.993 67.9174 991.094 78.6601C1005.33 89.5088 1016.22 101.714 1027.02 113.883C1033.92 121.647 1040.57 129.569 1045.9 137.745C1052.55 147.968 1058.01 158.479 1063.46 168.953C1069.4 180.375 1074.17 192.006 1080.51 203.347C1087.42 215.692 1095.18 227.89 1103.23 239.998C1117.29 261.168 1131.93 282.203 1146.17 303.331C1154.05 315.005 1161.72 326.719 1169.27 338.464C1174.51 346.619 1178.81 355 1184.56 363.02C1191.56 372.805 1199.48 382.363 1207.31 391.934C1214.85 401.154 1222.52 410.336 1230.59 419.388C1238.04 427.741 1246.19 435.863 1253.85 444.15C1262.69 453.703 1271.16 463.375 1280.09 472.887C1285.06 478.183 1290.69 483.256 1295.95 488.463C1296.85 489.351 1297.58 490.363 1297.97 491.371C1298.2 491.976 1297.91 493.133 1297.37 493.244C1295.97 493.536 1294.41 493.784 1293.17 492.403C1288.58 487.279 1283.71 482.238 1278.96 477.164C1273.9 471.73 1268.83 466.296 1263.79 460.843C1248.83 444.671 1233.68 428.56 1219.04 412.286C1210.48 402.78 1202.93 392.953 1194.65 383.348C1182.37 369.105 1173.14 354.142 1164.07 339.121C1158.02 329.097 1151.13 319.243 1144.53 309.336C1129.23 286.315 1113.73 263.336 1098.57 240.279C1090.4 227.834 1082.31 215.348 1075.04 202.71C1070.11 194.151 1066.91 185.272 1062.5 176.607C1054.53 160.993 1048.07 145.039 1036.54 130.143C1028 119.093 1017.89 108.473 1008.34 97.7077C997.101 85.0374 982.59 73.8177 967.342 62.9355C954.531 53.7951 941.484 44.7778 929.032 35.4533C924.409 31.9923 921.294 27.7585 917.328 23.9457C910.38 17.26 903.484 10.5286 894.314 4.86869C890.406 2.4605 889.309 2.5563 886.654 5.29596C879.92 12.2194 872.603 18.9315 866.464 26.0744C855.954 38.3053 845.673 50.6433 836.268 63.248C830.963 70.3652 827.863 78.1789 823.275 85.5482C816.801 95.9502 810.237 106.337 803.03 116.521C797.933 123.722 791.261 130.442 786.119 137.632C779.48 146.922 773.471 156.414 767.531 165.912C759.243 179.158 751.733 192.626 743.012 205.74C736.172 216.029 727.91 225.902 720.47 236.015C715.711 242.482 711.462 249.117 706.648 255.565C700.503 263.811 693.837 271.887 687.724 280.151C678.821 292.187 668.281 303.6 657.617 314.981C649.528 323.621 641.307 332.206 633.603 340.99C626.78 348.771 620.618 356.799 614.103 364.694C606.792 373.557 599.953 382.613 591.907 391.185C584.075 399.531 473.402 556.643 464.682 564.635C461.312 567.728 459.121 567.891 454.233 566.801C451.779 566.248 451.266 565.055 450.469 563.822C445.87 556.735 441.726 549.523 436.421 542.632C432.219 537.182 426.316 532.214 421.59 526.89C410.652 514.55 399.666 502.227 390.556 489.316C381.866 476.991 372.138 464.926 362.995 452.712C353.262 439.723 343.852 426.64 333.975 413.689C320.452 395.973 307.205 378.18 291.839 360.976C283.908 352.102 277.255 342.818 269.338 333.931C259.299 322.653 248.962 311.449 237.968 300.511C232.761 295.331 225.846 290.776 219.459 286.067C215.818 283.38 213.465 283.196 209.983 285.739C205.008 289.366 200.151 293.147 196.276 297.27C188.07 306.008 180.367 314.958 172.755 323.923C166.563 331.205 160.667 338.601 154.861 346.019C147.077 355.942 139.116 365.806 131.996 375.941C117.723 389.764 115.772 395.85 112.389 401.51C105.228 413.458 98.22 425.471 90.1701 437.159C81.1941 450.192 70.7301 462.781 61.6428 475.782C54.2734 486.327 48.1144 497.233 41.1994 507.92C30.422 524.664 19.4298 541.374 8.42717 558.076C6.7703 560.595 4.44505 562.932 2.96691 565.496C1.97992 567.218 1.94078 569.191 1.47765 571.054C1.27538 571.1 1.07311 571.147 0.860375 571.185Z" fill="#2F6057"/>
</svg>

<svg id="svg-mountain" width="1279" height="572" fill="none" viewBox="0 0 1279 572">
  <path d="M.86 571.185c-.22-1.404-.948-2.891-.536-4.188.57-1.803 1.955-3.474 3.056-5.185 7.775-12.139 15.537-24.278 23.355-36.399 5.992-9.276 12.587-18.398 17.976-27.83 8.292-14.509 17.835-28.608 28.549-42.401 10.783-13.879 20.637-28.066 28.578-42.801 4.893-9.08 9.105-18.338 24.691-35.664 3.21-5.567 7.558-10.838 11.582-16.188 6.272-8.335 12.292-16.766 19.126-24.899 11.456-13.646 23.311-27.162 35.373-40.588 3.296-3.67 7.664-6.976 12.008-10.191 3.935-2.913 9.313-3.185 14.38-.636 4.124 2.074 7.761 4.616 11.249 7.145 14.552 10.56 25.43 22.563 35.851 34.712 13.121 15.314 26.219 30.633 38.956 46.064 9.312 11.278 18.178 22.695 26.927 34.131 12.484 16.31 24.667 32.708 37.019 49.056 11.673 15.451 23.095 30.965 35.2 46.288 6.75 8.551 14.613 16.791 22.082 25.132 6.835 7.635 14.223 15.103 20.566 22.881 3.946 4.843 6.417 10.122 9.727 15.506 1.433-1.075 2.973-2.083 4.262-3.201 11.64-10.116 123.994-169.846 132.843-181.115 10.177-12.947 20.177-25.959 30.87-38.714 7.576-9.041 16.057-17.761 24.327-26.552 11.917-12.666 23.536-25.439 33.416-38.859 6.595-8.949 13.809-17.69 20.381-26.64 6.236-8.498 11.795-17.201 17.986-25.709 5.305-7.291 11.631-14.272 16.547-21.677 6.828-10.291 12.846-20.821 19.028-31.292 8.034-13.594 15.824-27.26 26.359-40.124 6.056-7.388 12.724-14.606 17.836-22.274 8.258-12.391 15.215-25.166 23.196-37.647 5.556-8.681 11.448-17.289 17.98-25.666 10.819-13.89 23.005-27.29 36.221-40.273 1.085-1.063 2.173-2.148 2.927-3.32 1.16-1.815 3.386-2.336 5.922-1.429 4.21 1.505 8.616 3.02 12.094 5.094 10.029 5.976 17.914 13.085 24.609 20.556 6.785 7.572 15.546 14.068 24.608 20.555a1795.872 1795.872 0 0143.107 31.817c14.236 10.849 25.126 23.054 35.926 35.223 6.9 7.764 13.55 15.686 18.88 23.862 6.65 10.223 12.11 20.734 17.56 31.208 5.94 11.422 10.71 23.053 17.05 34.394 6.91 12.345 14.67 24.543 22.72 36.651 14.06 21.17 28.7 42.205 42.94 63.333 7.88 11.674 15.55 23.388 23.1 35.133 5.24 8.155 9.54 16.536 15.29 24.556 7 9.785 14.92 19.343 22.75 28.914 7.54 9.22 15.21 18.402 23.28 27.454 7.45 8.353 15.6 16.475 23.26 24.762 8.84 9.553 17.31 19.225 26.24 28.737 4.97 5.296 10.6 10.369 15.86 15.576.9.888 1.63 1.9 2.02 2.908.23.605-.06 1.762-.6 1.873-1.4.292-2.96.54-4.2-.841-4.59-5.124-9.46-10.165-14.21-15.239-5.06-5.434-10.13-10.868-15.17-16.321-14.96-16.172-30.11-32.283-44.75-48.557-8.56-9.506-16.11-19.333-24.39-28.938-12.28-14.243-21.51-29.206-30.58-44.227-6.05-10.024-12.94-19.878-19.54-29.785-15.3-23.021-30.8-46-45.96-69.057-8.17-12.445-16.26-24.931-23.53-37.569-4.93-8.559-8.13-17.438-12.54-26.103-7.97-15.614-14.43-31.568-25.96-46.464-8.54-11.05-18.65-21.67-28.2-32.435-11.239-12.67-25.75-23.89-40.998-34.773-12.811-9.14-25.858-18.157-38.31-27.482-4.623-3.46-7.738-7.695-11.704-11.507-6.948-6.686-13.844-13.417-23.014-19.077-3.908-2.408-5.005-2.313-7.66.427-6.734 6.923-14.051 13.635-20.19 20.778-10.51 12.231-20.791 24.57-30.196 37.174-5.305 7.117-8.405 14.93-12.993 22.3-6.474 10.402-13.038 20.789-20.245 30.973-5.097 7.201-11.769 13.921-16.911 21.111-6.639 9.29-12.648 18.782-18.588 28.28-8.288 13.246-15.798 26.714-24.519 39.828-6.84 10.289-15.102 20.162-22.542 30.275-4.759 6.467-9.008 13.102-13.822 19.55-6.145 8.246-12.811 16.322-18.924 24.586-8.903 12.036-19.443 23.449-30.107 34.83-8.089 8.64-16.31 17.225-24.014 26.009-6.823 7.781-12.985 15.809-19.5 23.704-7.311 8.863-14.15 17.919-22.196 26.491-7.832 8.346-118.505 165.458-127.225 173.45-3.37 3.093-5.561 3.256-10.449 2.166-2.454-.553-2.967-1.746-3.764-2.979-4.599-7.087-8.743-14.299-14.048-21.19-4.202-5.45-10.105-10.418-14.831-15.742-10.938-12.34-21.924-24.663-31.034-37.574-8.69-12.325-18.418-24.39-27.561-36.604-9.733-12.989-19.143-26.072-29.02-39.023-13.523-17.716-26.77-35.509-42.136-52.713-7.931-8.874-14.584-18.158-22.501-27.045-10.039-11.278-20.376-22.482-31.37-33.42-5.207-5.18-12.122-9.735-18.509-14.444-3.641-2.687-5.994-2.871-9.476-.328-4.975 3.627-9.832 7.408-13.707 11.531-8.206 8.738-15.909 17.688-23.521 26.653-6.192 7.282-12.088 14.678-17.894 22.096-7.784 9.923-15.745 19.787-22.865 29.922-14.273 13.823-16.224 19.909-19.607 25.569-7.161 11.948-14.169 23.961-22.219 35.649-8.976 13.033-19.44 25.622-28.527 38.623-7.37 10.545-13.529 21.451-20.444 32.138-10.777 16.744-21.77 33.454-32.772 50.156-1.657 2.519-3.982 4.856-5.46 7.42-.987 1.722-1.026 3.695-1.49 5.558-.202.046-.404.093-.617.131z"/>
</svg>
